www/assets/icons/ring_volume.svg

<svg width="24" height="24" viewBox="0 0 24 24" xmlns="http://www.w3.org/2000/svg" fill='currentColor'><path d="M23.71 17.2398C20.66 14.3498 16.54 12.5698 12 12.5698C7.46 12.5698 3.34 14.3498 0.29 17.2398C0.11 17.4198 0 17.6698 0 17.9498C0 18.2298 0.11 18.4798 0.29 18.6598L2.77 21.1398C2.95 21.3198 3.2 21.4298 3.48 21.4298C3.75 21.4298 4 21.3198 4.18 21.1498C4.97 20.4098 5.87 19.7898 6.84 19.2998C7.17 19.1398 7.4 18.7998 7.4 18.3998V15.2998C8.85 14.8198 10.4 14.5698 12 14.5698C13.6 14.5698 15.15 14.8198 16.6 15.2898V18.3898C16.6 18.7798 16.83 19.1298 17.16 19.2898C18.14 19.7798 19.03 20.4098 19.82 21.1398C20 21.3198 20.25 21.4198 20.52 21.4198C20.8 21.4198 21.05 21.3098 21.23 21.1298L23.71 18.6498C23.89 18.4698 24 18.2198 24 17.9398C24 17.6698 23.89 17.4198 23.71 17.2398ZM21.16 6.82982L19.75 5.41982L16.19 8.96982L17.6 10.3798C17.6 10.3798 21.05 6.85982 21.16 6.82982ZM13 2.56982H11V7.56982H13V2.56982ZM6.4 10.3798L7.81 8.96982L4.26 5.40982L2.84 6.82982C2.95 6.85982 6.4 10.3798 6.4 10.3798Z"/></svg>

<svg xmlns="http://www.w3.org/2000/svg" width="24" height="24" viewBox="0 0 24 24" fill='currentColor'><path d="M23.71 17.24A16.97 16.97 0 0 0 12 12.57c-4.54 0-8.66 1.78-11.71 4.67-.18.18-.29.43-.29.71s.11.53.29.71l2.48 2.48c.18.18.43.29.71.29.27 0 .52-.11.7-.28.79-.74 1.69-1.36 2.66-1.85.33-.16.56-.5.56-.9v-3.1c1.45-.48 3-.73 4.6-.73s3.15.25 4.6.72v3.1c0 .39.23.74.56.9.98.49 1.87 1.12 2.66 1.85.18.18.43.28.7.28.28 0 .53-.11.71-.29l2.48-2.48c.18-.18.29-.43.29-.71a1 1 0 0 0-.29-.7M21.16 6.83l-1.41-1.41-3.56 3.55 1.41 1.41s3.45-3.52 3.56-3.55M13 2.57h-2v5h2zm-6.6 7.81 1.41-1.41-3.55-3.56-1.42 1.42c.11.03 3.56 3.55 3.56 3.55"/></svg>
